icons/svg/branch-fork-2.svg

<svg width="24" height="24" viewBox="0 0 24 24" fill="none" xmlns="http://www.w3.org/2000/svg">
<path d="M6.5 8.25C8.01878 8.25 9.25 7.01878 9.25 5.5C9.25 3.98122 8.01878 2.75 6.5 2.75C4.98122 2.75 3.75 3.98122 3.75 5.5C3.75 7.01878 4.98122 8.25 6.5 8.25ZM6.5 8.25V10C6.5 11.1046 7.39543 12 8.5 12H11.5M17.5 8.25C19.0188 8.25 20.25 7.01878 20.25 5.5C20.25 3.98122 19.0188 2.75 17.5 2.75C15.9812 2.75 14.75 3.98122 14.75 5.5C14.75 7.01878 15.9812 8.25 17.5 8.25ZM17.5 8.25V10C17.5 11.1046 16.6046 12 15.5 12H11.5M11.5 12V15.75M11.5 15.75C9.98122 15.75 8.75 16.9812 8.75 18.5C8.75 20.0188 9.98122 21.25 11.5 21.25C13.0188 21.25 14.25 20.0188 14.25 18.5C14.25 16.9812 13.0188 15.75 11.5 15.75Z" stroke="currentColor" stroke-width="1.5" stroke-linecap="round" stroke-linejoin="round"/>
</svg>

<svg xmlns="http://www.w3.org/2000/svg" width="24" height="24" fill="none" viewBox="0 0 24 24"><path stroke="currentColor" stroke-linecap="round" stroke-linejoin="round" stroke-width="1.5" d="M6.5 8.25a2.75 2.75 0 1 0 0-5.5 2.75 2.75 0 0 0 0 5.5m0 0V10a2 2 0 0 0 2 2h3m6-3.75a2.75 2.75 0 1 0 0-5.5 2.75 2.75 0 0 0 0 5.5m0 0V10a2 2 0 0 1-2 2h-4m0 0v3.75m0 0a2.75 2.75 0 1 0 0 5.5 2.75 2.75 0 0 0 0-5.5"/></svg>
